X: 1
T: Coffee
M: 6/8
L: 1/8
R: jig
K: Ador
|:&quot;Am&quot;EAA GAA | cBA eAA | EAA GAA | &quot;Em&quot;cBA ABA |
&quot;Am&quot;EAA GAA | cBA eAA | &quot;F&quot;cBA &quot;Em&quot;ABA | GED &quot;Am&quot;A3 :|
|:&quot;Am&quot;[E2A,2][AC] EGA | &quot;(F)&quot; cBA GED | &quot;Am (D)&quot;[E2A,2][AC] EGA | &quot;(F)&quot;cBA A3 |
&quot;Am&quot;[E2A,2][AC] EGA | &quot;G&quot;d2 c- &quot;Am&quot;cAG | &quot;G&quot;d2 c- &quot;Am&quot;cAG | &quot;Em&quot;EDE &quot;Am&quot;A3 :|
